X:1
T:O, That I Had Never Been Married
M:4/4
L:1/4
K:C
 E cB/2-c/2 d| G E F D| E cB/2-c/2 d| G E A2| E cB/2-c/2 d| G E F3/2 D/2|\
 E3/2 D/2 C D| E ^G A2|(3E3.99999962500005/11.9999985000002E3.99999962500005/11.9999985000002F3.99999962500005/11.9999985000002E3.99999962500005/11.9999985000002F3.99999962500005/11.9999985000002G3.99999962500005/11.9999985000002 G G E|\
(3D3.99999962500005/11.9999985000002D3.99999962500005/11.9999985000002E3.99999962500005/11.9999985000002D3.99999962500005/11.9999985000002E3.99999962500005/11.9999985000002F3.99999962500005/11.9999985000002 F F D|\
 E G E C| E ^G A2| =G3/2 E/2 C D|E/2-F/2 G F D| E3/2 D/2 C D| E ^G A2|\
